public/logos/PK.svg

<?xml version="1.0" encoding="UTF-8"?>
<svg xmlns="http://www.w3.org/2000/svg" xmlns:xlink="http://www.w3.org/1999/xlink" width="176pt" height="60.31pt" viewBox="0 0 176 60.31" version="1.1">
<defs>
<clipPath id="clip1">
  <path d="M 0 0 L 76 0 L 76 60.308594 L 0 60.308594 Z M 0 0 "/>
</clipPath>
</defs>
<g id="surface1">
<path style=" stroke:none;fill-rule:nonzero;fill:rgb(9.075928%,18.707275%,11.288452%);fill-opacity:1;" d="M 123.433594 0.0976562 C 124.695312 0.726562 125.328125 1.796875 125.328125 3.257812 L 125.328125 31.996094 C 125.328125 33.453125 124.695312 34.476562 123.433594 35.109375 L 134.277344 35.109375 C 133.15625 34.621094 132.574219 33.601562 132.574219 31.996094 L 132.574219 3.257812 C 132.574219 1.796875 133.15625 0.726562 134.277344 0.0976562 L 123.433594 0.0976562 "/>
<path style=" stroke:none;fill-rule:nonzero;fill:rgb(9.075928%,18.707275%,11.288452%);fill-opacity:1;" d="M 156.691406 6.855469 L 161.507812 20.375 L 151.347656 20.375 Z M 153.875 1.847656 L 153.777344 2.527344 L 142.152344 32.480469 C 141.8125 33.308594 141.035156 34.183594 139.769531 35.109375 L 146.628906 35.109375 C 146.335938 35.058594 146.140625 34.816406 146.09375 34.425781 C 145.996094 33.890625 146.140625 33.261719 146.53125 32.480469 L 149.933594 24.019531 L 162.96875 24.019531 C 163.113281 24.652344 164.136719 27.570312 166.078125 32.726562 L 166.613281 33.941406 C 166.808594 34.425781 166.566406 34.816406 165.835938 35.109375 L 176 35.109375 C 174.980469 34.523438 174.152344 33.648438 173.566406 32.480469 L 161.753906 0.0976562 L 152.5625 0.0976562 C 153.53125 0.726562 153.972656 1.3125 153.875 1.847656 "/>
<path style=" stroke:none;fill-rule:nonzero;fill:rgb(9.075928%,18.707275%,11.288452%);fill-opacity:1;" d="M 100.578125 3.257812 L 102.328125 3.257812 C 106.851562 3.257812 109.089844 5.203125 109.089844 9.042969 C 109.089844 12.691406 107.433594 14.828125 104.175781 15.363281 C 103.640625 15.460938 103.007812 15.511719 102.328125 15.511719 L 100.578125 15.511719 L 100.578125 14.585938 C 100.578125 14.292969 100.578125 14.003906 100.578125 13.660156 Z M 91.628906 0.0976562 C 92.746094 0.726562 93.332031 1.796875 93.382812 3.257812 L 93.382812 31.996094 C 93.332031 33.601562 92.746094 34.621094 91.628906 35.109375 L 102.328125 35.109375 C 101.160156 34.621094 100.578125 33.601562 100.578125 31.996094 L 100.578125 17.308594 L 107.578125 17.308594 C 107.578125 17.308594 107.578125 17.308594 107.628906 17.308594 C 107.480469 17.261719 107.386719 17.261719 107.238281 17.261719 L 107.578125 17.261719 C 107.679688 17.261719 107.773438 17.261719 107.921875 17.261719 C 113.804688 17.019531 116.769531 14.199219 116.816406 8.75 C 116.769531 2.964844 112.636719 0.0976562 104.417969 0.0976562 L 91.628906 0.0976562 "/>
<path style=" stroke:none;fill-rule:nonzero;fill:rgb(9.075928%,18.707275%,11.288452%);fill-opacity:1;" d="M 67.851562 1.214844 C 68.09375 0.972656 68.042969 0.875 67.65625 0.875 L 59.535156 0.4375 C 59.195312 0.386719 58.902344 0.4375 58.660156 0.582031 L 54.722656 3.351562 C 54.382812 3.789062 54.527344 3.984375 55.160156 3.839844 L 57.105469 2.964844 C 57.445312 2.769531 57.882812 2.671875 58.417969 2.722656 L 63.035156 3.011719 C 63.472656 3.207031 63.472656 3.546875 63.085938 4.082031 L 58.125 8.75 C 57.882812 8.996094 57.785156 9.335938 57.832031 9.773438 L 57.542969 18.671875 C 57.492188 18.914062 57.296875 19.207031 56.910156 19.546875 C 56.714844 19.839844 56.714844 19.984375 56.957031 19.9375 C 58.320312 18.914062 59.535156 17.796875 60.652344 16.628906 C 60.992188 16.433594 61.140625 16.144531 61.140625 15.753906 L 61.382812 6.804688 C 61.382812 6.464844 61.527344 6.273438 61.871094 6.125 L 67.851562 1.214844 "/>
<g clip-path="url(#clip1)" clip-rule="nonzero">
<path style=" stroke:none;fill-rule:nonzero;fill:rgb(9.075928%,18.707275%,11.288452%);fill-opacity:1;" d="M 50.199219 2.136719 C 49.761719 1.796875 49.371094 1.796875 49.03125 2.136719 C 47.816406 3.5 46.210938 4.519531 44.265625 5.203125 C 42.710938 5.832031 41.589844 5.492188 40.910156 4.179688 C 40.472656 3.109375 40.765625 1.699219 41.738281 -0.00390625 C 40.714844 0.046875 39.792969 0.726562 38.964844 1.941406 C 37.945312 3.742188 37.894531 5.394531 38.722656 6.804688 C 39.550781 8.214844 40.230469 8.75 40.667969 8.410156 C 41.785156 7.339844 43.050781 6.464844 44.460938 5.785156 C 45.285156 5.25 46.113281 5.203125 46.941406 5.589844 C 48.738281 7.097656 49.808594 9.140625 50.101562 11.765625 C 50.394531 14.34375 48.738281 16.824219 45.09375 19.109375 L 42.222656 20.957031 C 42.027344 21.25 42.078125 21.492188 42.417969 21.636719 C 50.832031 24.117188 55.9375 26.742188 57.6875 29.46875 C 58.902344 31.121094 59.046875 32.773438 58.125 34.378906 C 57.105469 36.273438 55.351562 37.878906 52.824219 39.191406 C 48.886719 40.894531 44.21875 41.867188 38.867188 42.011719 C 35.804688 42.109375 32.839844 42.0625 29.871094 41.914062 C 21.847656 41.625 16.257812 40.503906 13.046875 38.511719 C 11.683594 37.734375 10.859375 36.957031 10.566406 36.226562 C 10.175781 35.398438 10.175781 34.28125 10.519531 32.871094 L 37.847656 32.773438 C 39.160156 32.824219 40.277344 32.53125 41.105469 31.996094 C 43.097656 30.78125 44.800781 29.5625 46.308594 28.347656 C 46.550781 27.910156 46.261719 27.765625 45.53125 28.007812 L 44.21875 28.492188 C 43.683594 28.738281 42.808594 28.882812 41.589844 28.882812 L 7.988281 28.835938 C 5.898438 28.933594 4.4375 28.640625 3.710938 27.960938 C 2.785156 27.035156 2.6875 25.917969 3.417969 24.605469 C 5.023438 22.804688 6.191406 21.882812 6.917969 21.734375 L 16.644531 21.832031 C 17.179688 21.785156 17.570312 21.589844 17.859375 21.25 C 19.464844 19.839844 20.925781 18.476562 22.335938 17.066406 C 22.285156 16.773438 22.042969 16.773438 21.554688 17.066406 L 20.488281 17.746094 C 19.855469 18.234375 18.929688 18.429688 17.765625 18.378906 L 10.03125 18.28125 C 9.011719 18.523438 8.183594 18.914062 7.550781 19.449219 C 5.363281 21.25 3.273438 23.144531 1.230469 25.042969 C 0.304688 25.867188 -0.0820312 26.695312 0.015625 27.617188 C 0.113281 29.03125 0.746094 30.148438 1.910156 30.925781 C 3.371094 32.09375 5.265625 32.726562 7.648438 32.871094 L 9.984375 32.871094 C 8.476562 35.15625 7.890625 37.296875 8.230469 39.289062 C 8.574219 41.332031 9.398438 42.839844 10.761719 43.8125 C 12.609375 45.273438 15.089844 46.195312 18.25 46.632812 C 21.117188 47.117188 23.941406 47.363281 26.710938 47.3125 C 26.078125 48.433594 25.738281 49.453125 25.640625 50.476562 C 25.445312 53.636719 26.273438 55.871094 28.121094 57.183594 C 30.019531 58.789062 32.691406 59.761719 36.046875 60.199219 C 41.640625 60.636719 47.914062 59.761719 54.769531 57.574219 C 62.355469 55.09375 68.289062 51.542969 72.519531 46.925781 C 74.367188 45.027344 75.484375 42.644531 75.875 39.679688 C 76.019531 38.074219 75.875 36.519531 75.484375 34.960938 C 74.171875 31.410156 72.03125 28.882812 69.066406 27.277344 C 68.53125 26.742188 68.484375 26.160156 68.921875 25.625 L 73.394531 20.566406 C 74.320312 19.742188 74.757812 18.964844 74.707031 18.332031 C 73.832031 14.539062 72.617188 12.105469 71.109375 11.085938 C 70.527344 10.695312 70.039062 10.648438 69.699219 10.890625 C 69.019531 11.230469 68.386719 11.667969 67.753906 12.203125 C 66.925781 12.789062 66.050781 13.320312 65.128906 13.761719 C 64.933594 13.808594 64.785156 13.90625 64.640625 13.953125 C 64.445312 14.390625 64.542969 14.488281 64.933594 14.34375 C 64.980469 14.292969 65.078125 14.246094 65.175781 14.246094 C 65.371094 14.148438 65.664062 14.050781 66.003906 13.953125 C 66.828125 13.808594 68.191406 15.171875 70.039062 17.992188 C 71.15625 19.742188 71.207031 21.445312 70.234375 23.046875 C 68.386719 25.140625 66.34375 27.179688 64.058594 29.175781 C 63.425781 29.660156 63.523438 30 64.253906 30.246094 C 69.550781 32.53125 72.566406 34.476562 73.296875 36.179688 C 74.320312 37.976562 74.511719 39.824219 73.78125 41.722656 C 72.957031 44.105469 70.671875 46.390625 67.023438 48.675781 C 62.648438 50.816406 57.929688 52.226562 52.824219 52.90625 C 43.683594 53.976562 37.070312 53.925781 33.03125 52.710938 C 29.289062 51.542969 27.441406 49.746094 27.488281 47.3125 C 28.65625 47.265625 29.824219 47.167969 30.992188 47.023438 C 36.386719 46.828125 41.882812 45.804688 47.523438 43.910156 C 49.324219 43.277344 50.832031 42.5 52.144531 41.625 C 55.160156 40.117188 57.492188 38.121094 59.148438 35.691406 C 60.410156 34.28125 60.992188 32.382812 60.898438 30.101562 C 60.992188 28.445312 60.363281 26.792969 59 25.1875 C 56.132812 22.511719 52.582031 20.519531 48.351562 19.207031 C 48.011719 18.769531 47.914062 18.378906 48.058594 18.039062 L 51.21875 14.585938 C 53.40625 12.789062 54.039062 10.257812 53.117188 6.902344 C 52.679688 4.910156 51.707031 3.351562 50.199219 2.136719 "/>
</g>
<path style=" stroke:none;fill-rule:nonzero;fill:rgb(9.075928%,18.707275%,11.288452%);fill-opacity:1;" d="M 78.304688 22.316406 L 75.875 25.042969 L 78.355469 27.667969 L 80.589844 25.285156 L 83.167969 25.238281 L 85.40625 27.765625 L 87.789062 24.992188 L 85.453125 22.367188 L 83.167969 24.554688 L 80.542969 24.652344 L 78.304688 22.316406 "/>
<path style=" stroke:none;fill-rule:nonzero;fill:rgb(9.075928%,18.707275%,11.288452%);fill-opacity:1;" d="M 39.648438 12.691406 C 39.695312 12.351562 39.839844 12.105469 40.085938 11.960938 L 40.617188 11.476562 C 40.714844 11.28125 40.714844 11.132812 40.667969 10.988281 C 40.425781 10.84375 40.179688 10.84375 39.988281 10.988281 L 36.289062 14.148438 C 36.046875 14.390625 35.949219 14.78125 36 15.21875 L 35.804688 24.507812 C 35.757812 24.796875 35.511719 25.140625 35.171875 25.480469 C 34.929688 25.722656 34.929688 25.867188 35.171875 25.867188 C 36.582031 24.847656 37.796875 23.730469 38.917969 22.511719 C 39.257812 22.367188 39.402344 22.074219 39.402344 21.636719 L 39.648438 12.691406 "/>
<path style=" stroke:none;fill-rule:nonzero;fill:rgb(9.075928%,18.707275%,11.288452%);fill-opacity:1;" d="M 81.808594 33.695312 L 83.996094 31.167969 L 81.613281 28.785156 L 79.523438 31.121094 L 81.808594 33.695312 "/>
</g>
</svg>

<svg xmlns="http://www.w3.org/2000/svg" width="176pt" height="80.413" viewBox="0 0 176 60.31"><defs><clipPath id="a"><path d="M0 0h76v60.309H0Zm0 0"/></clipPath></defs><path d="M123.434.098c1.261.629 1.894 1.699 1.894 3.16v28.738c0 1.457-.633 2.48-1.894 3.113h10.843c-1.12-.488-1.703-1.507-1.703-3.113V3.258c0-1.461.582-2.531 1.703-3.16zM156.691 6.855l4.817 13.52h-10.16Zm-2.816-5.007-.098.68-11.625 29.952c-.34.829-1.117 1.704-2.382 2.63h6.859c-.293-.051-.488-.294-.535-.684-.098-.535.047-1.164.437-1.946l3.403-8.46h13.035c.144.632 1.168 3.55 3.11 8.707l.534 1.214c.196.485-.047.875-.777 1.168H176c-1.02-.586-1.848-1.46-2.434-2.629L161.754.098h-9.191c.968.629 1.41 1.215 1.312 1.75M100.578 3.258h1.75c4.524 0 6.762 1.945 6.762 5.785 0 3.648-1.656 5.785-4.914 6.32-.535.098-1.168.149-1.848.149h-1.75V13.66Zm-8.95-3.16c1.118.629 1.704 1.699 1.755 3.16v28.738c-.051 1.606-.637 2.625-1.754 3.113h10.7c-1.169-.488-1.75-1.507-1.75-3.113V17.31h7.05c-.149-.047-.242-.047-.39-.047h.683c5.883-.242 8.848-3.063 8.894-8.512-.046-5.785-4.18-8.652-12.398-8.652zM67.852 1.215c.242-.242.191-.34-.196-.34l-8.12-.437c-.34-.051-.634 0-.876.144l-3.937 2.77c-.34.437-.196.632.437.488l1.945-.875c.34-.195.778-.293 1.313-.242l4.617.289c.438.195.438.535.05 1.07l-4.96 4.668q-.363.368-.293 1.023l-.289 8.899c-.05.242-.246.535-.633.875-.195.293-.195.437.047.39a30 30 0 0 0 3.695-3.308c.34-.195.489-.484.489-.875l.242-8.95c0-.34.144-.53.488-.679z" style="stroke:none;fill-rule:nonzero;fill:#17301d;fill-opacity:1"/><g clip-path="url(#a)"><path d="M50.2 2.137q-.658-.51-1.169 0c-1.215 1.363-2.82 2.383-4.765 3.066q-2.334.945-3.356-1.023c-.437-1.07-.144-2.48.828-4.184-1.023.05-1.945.73-2.773 1.945-1.02 1.801-1.07 3.454-.242 4.864S40.23 8.75 40.668 8.41a14.6 14.6 0 0 1 3.793-2.625c.824-.535 1.652-.582 2.48-.195 1.797 1.508 2.868 3.55 3.16 6.176.294 2.578-1.363 5.058-5.007 7.343l-2.871 1.848c-.196.293-.145.535.195.68 8.414 2.48 13.52 5.105 15.27 7.832 1.214 1.652 1.359 3.304.437 4.91-1.02 1.894-2.773 3.5-5.3 4.812-3.938 1.704-8.606 2.676-13.958 2.82-3.062.098-6.027.051-8.996-.097-8.023-.289-13.613-1.41-16.824-3.402-1.363-.778-2.188-1.555-2.48-2.285-.391-.829-.391-1.946-.047-3.356l27.328-.098c1.312.051 2.43-.242 3.257-.777a48 48 0 0 0 5.204-3.648c.242-.438-.047-.582-.778-.34l-1.312.484c-.535.246-1.41.39-2.63.39l-33.6-.046c-2.09.098-3.551-.195-4.278-.875q-1.388-1.388-.293-3.356c1.605-1.8 2.773-2.722 3.5-2.87l9.727.097c.535-.047.925-.242 1.214-.582a94 94 0 0 0 4.477-4.184c-.05-.293-.293-.293-.781 0l-1.067.68c-.633.488-1.558.684-2.722.633l-7.735-.098q-1.53.364-2.48 1.168c-2.188 1.801-4.278 3.696-6.32 5.594-.926.824-1.313 1.652-1.215 2.574.097 1.414.73 2.531 1.894 3.309 1.461 1.168 3.356 1.8 5.738 1.945h2.336Q7.723 36.3 8.23 39.29c.344 2.043 1.168 3.55 2.532 4.523 1.847 1.461 4.328 2.383 7.488 2.82 2.867.485 5.691.731 8.46.68-.632 1.122-.972 2.141-1.07 3.165q-.292 4.739 2.481 6.707c1.899 1.605 4.57 2.578 7.926 3.015 5.594.438 11.867-.437 18.723-2.625 7.585-2.48 13.52-6.031 17.75-10.648 1.847-1.899 2.964-4.281 3.355-7.246.145-1.606 0-3.16-.39-4.72-1.313-3.55-3.454-6.077-6.419-7.683-.535-.535-.582-1.117-.144-1.652l4.473-5.059c.925-.824 1.363-1.601 1.312-2.234-.875-3.793-2.09-6.227-3.598-7.246-.582-.39-1.07-.438-1.41-.195-.68.34-1.312.777-1.945 1.312a18 18 0 0 1-2.625 1.559c-.195.047-.344.144-.488.191-.196.438-.098.535.293.39a.35.35 0 0 1 .242-.097c.195-.098.488-.195.828-.293.824-.144 2.187 1.219 4.035 4.04 1.117 1.75 1.168 3.452.195 5.054a67 67 0 0 1-6.175 6.129c-.633.484-.536.824.195 1.07 5.297 2.285 8.312 4.23 9.043 5.934 1.023 1.797 1.215 3.644.484 5.543-.824 2.382-3.11 4.668-6.758 6.953-4.375 2.14-9.093 3.55-14.199 4.23-9.14 1.07-15.754 1.02-19.793-.195q-5.613-1.75-5.543-5.398a42 42 0 0 0 3.504-.29c5.395-.195 10.89-1.218 16.531-3.113 1.801-.633 3.309-1.41 4.622-2.285 3.015-1.508 5.347-3.504 7.003-5.934 1.262-1.41 1.844-3.308 1.75-5.59.094-1.656-.535-3.308-1.898-4.913q-4.302-4.013-10.648-5.981-.51-.657-.293-1.168l3.16-3.453c2.187-1.797 2.82-4.328 1.898-7.684-.437-1.992-1.41-3.55-2.918-4.765" style="stroke:none;fill-rule:nonzero;fill:#17301d;fill-opacity:1"/></g><path d="m78.305 22.316-2.43 2.727 2.48 2.625 2.235-2.383 2.578-.047 2.238 2.528 2.383-2.774-2.336-2.625-2.285 2.188-2.625.097zM39.648 12.691c.047-.34.192-.586.438-.73l.531-.484c.098-.196.098-.344.051-.489-.242-.144-.488-.144-.68 0l-3.699 3.16c-.242.243-.34.633-.289 1.07l-.195 9.29c-.047.289-.293.633-.633.972-.242.243-.242.387 0 .387a24.8 24.8 0 0 0 3.746-3.355c.34-.145.484-.438.484-.875zM81.809 33.695l2.187-2.527-2.383-2.383-2.09 2.336z" style="stroke:none;fill-rule:nonzero;fill:#17301d;fill-opacity:1"/></svg>
